; generated by PrusaSlicer 2.3.1+win64 on 2022-05-26 at 19:42:15 UTC

; 

; external perimeters extrusion width = 0.45mm
; perimeters extrusion width = 0.45mm
; infill extrusion width = 0.45mm
; solid infill extrusion width = 0.45mm
; top infill extrusion width = 0.40mm
; first layer extrusion width = 0.42mm

M73 P0 R80
M73 Q0 S80
M201 X1000 Y1000 Z200 E5000 ; sets maximum accelerations, mm/sec^2
M203 X200 Y200 Z12 E120 ; sets maximum feedrates, mm/sec
M204 P1250 R1250 T1250 ; sets acceleration (P, T) and retract acceleration (R), mm/sec^2
M205 X8.00 Y8.00 Z0.40 E4.50 ; sets the jerk limits, mm/sec
M205 S0 T0 ; sets the minimum extruding and travel feed rate, mm/sec
M107
;TYPE:Custom
M862.3 P "MK3S" ; printer model check
M862.1 P0.4 ; nozzle diameter check
M115 U3.11.0 ; tell printer latest fw version
G90 ; use absolute coordinates
M83 ; extruder relative mode
M104 S215 ; set extruder temp
M140 S60 ; set bed temp
M190 S60 ; wait for bed temp
M109 S215 ; wait for extruder temp
G28 W ; home all without mesh bed level
G80 ; mesh bed leveling
G1 Y-3.0 F1000.0 ; go outside print area
G92 E0.0
G1 X60.0 E9.0 F1000.0 ; intro line
G1 X100.0 E12.5 F1000.0 ; intro line
G92 E0.0
M221 S95

; Don't change E values below. Excessive value can damage the printer.

M907 E538 ; set extruder motor current
G21 ; set units to millimeters
G90 ; use absolute coordinates
M83 ; use relative distances for extrusion
M900 K0.05 ; Filament gcode LA 1.5
M900 K30 ; Filament gcode LA 1.0
;LAYER_CHANGE
;Z:0.2
;HEIGHT:0.2
;BEFORE_LAYER_CHANGE
G92 E0.0
;0.2


G1 E-0.80000 F2100.000
G1 Z0.400 F10800.000
;AFTER_LAYER_CHANGE
;0.2
G1 X68.850 Y96.642
G1 Z0.200
G1 E0.80000 F2100.000
M204 S1000
;TYPE:Skirt
;WIDTH:0.42
G1 F1200.000
G1 X69.723 Y96.022 E0.03355
G1 X70.666 Y95.485 E0.03403
G1 X71.647 Y95.050 E0.03367
G1 X72.671 Y94.715 E0.03379
G1 X73.671 Y94.493 E0.03212
G1 X180.507 Y84.936 E3.36314
M73 Q0 S79
G1 X181.414 Y85.026 E0.02858
G1 X182.287 Y85.291 E0.02861
G1 X183.093 Y85.721 E0.02863
G1 X183.792 Y86.294 E0.02835
G1 X184.376 Y87.002 E0.02877
G1 X184.806 Y87.802 E0.02846
G1 X185.075 Y88.675 E0.02866
G1 X185.167 Y89.549 E0.02755
G1 X185.143 Y121.028 E0.98699
M73 P0 R79
G1 X184.990 Y121.825 E0.02546
G1 X184.774 Y122.425 E0.02000
G1 X184.382 Y123.143 E0.02564
G1 X183.876 Y123.772 E0.02531
G1 X183.399 Y124.208 E0.02026
G1 X182.724 Y124.655 E0.02539
G1 X182.180 Y124.904 E0.01874
G1 X181.399 Y125.131 E0.02551
G1 X180.069 Y125.198 E0.04176
G1 X73.761 Y115.677 E3.34657
G1 X72.568 Y115.408 E0.03833
G1 X70.671 Y114.671 E0.06380
G1 X69.633 Y114.071 E0.03760
G1 X68.040 Y112.805 E0.06380
G1 X66.719 Y111.258 E0.06380
G1 X66.083 Y110.241 E0.03760
G1 X65.280 Y108.372 E0.06380
G1 X64.970 Y107.194 E0.03819
G1 X64.813 Y106.151 E0.03307
G1 X64.760 Y105.074 E0.03379
G1 X64.814 Y104.002 E0.03367
G1 X64.976 Y102.933 E0.03390
G1 X65.242 Y101.893 E0.03367
G1 X65.613 Y100.881 E0.03379
G1 X66.083 Y99.911 E0.03379
G1 X66.646 Y98.997 E0.03367
G1 X67.302 Y98.137 E0.03391
G1 X68.039 Y97.351 E0.03379
G1 X68.805 Y96.681 E0.03191
; printing object Paint_Tube_Opener_MMC_Side.stl id:0 copy 0
;WIPE_START
G1 F8640.000
G1 X69.723 Y96.022 E-0.26084
G1 X70.666 Y95.485 E-0.25058
G1 X71.647 Y95.050 E-0.24792
G1 X71.650 Y95.050 E-0.00066
;WIPE_END
G1 E-0.04000 F2100.000
G1 Z0.600 F10800.000
G1 X76.077 Y100.219
G1 Z0.200
G1 E0.80000 F2100.000
;TYPE:Perimeter
G1 F1200.000
G1 X75.184 Y100.233 E0.02801
G1 X74.700 Y100.289 E0.01527
G1 X74.225 Y100.393 E0.01527
G1 X73.762 Y100.545 E0.01527
G1 X73.316 Y100.742 E0.01527
G1 X72.893 Y100.982 E0.01527
G1 X72.496 Y101.264 E0.01527
G1 X72.129 Y101.585 E0.01527
G1 X71.796 Y101.940 E0.01527
G1 X71.501 Y102.327 E0.01527
G1 X71.245 Y102.742 E0.01527
G1 X71.033 Y103.180 E0.01527
G1 X70.865 Y103.637 E0.01527
G1 X70.744 Y104.109 E0.01527
G1 X70.671 Y104.591 E0.01527
G1 X70.647 Y105.077 E0.01527
G1 X70.671 Y105.563 E0.01527
G1 X70.744 Y106.045 E0.01527
G1 X70.865 Y106.517 E0.01527
G1 X71.033 Y106.974 E0.01527
G1 X71.245 Y107.412 E0.01527
G1 X71.501 Y107.827 E0.01527
G1 X71.796 Y108.214 E0.01527
G1 X72.129 Y108.569 E0.01527
G1 X72.496 Y108.890 E0.01527
G1 X72.893 Y109.172 E0.01527
G1 X73.316 Y109.412 E0.01527
G1 X73.762 Y109.609 E0.01527
G1 X74.225 Y109.761 E0.01527
G1 X74.700 Y109.865 E0.01527
G1 X75.184 Y109.921 E0.01527
G1 X76.077 Y109.935 E0.02800
G1 X76.323 Y109.085 E0.02776
G1 X76.439 Y108.867 E0.00773
G1 X76.598 Y108.674 E0.00785
G1 X76.792 Y108.515 E0.00785
G1 X77.025 Y108.390 E0.00831
G1 X77.390 Y108.303 E0.01177
G1 X77.521 Y108.296 E0.00409
G1 X175.468 Y108.296 E3.07106
G1 X175.751 Y108.324 E0.00891
G1 X175.990 Y108.397 E0.00785
G1 X176.224 Y108.522 E0.00830
G1 X176.443 Y108.714 E0.00913
G1 X176.628 Y108.970 E0.00991
G1 X181.682 Y120.058 E0.38208
G1 X181.773 Y120.427 E0.01192
G1 X181.773 Y120.678 E0.00786
G1 X181.724 Y120.924 E0.00785
G1 X181.573 Y121.251 E0.01131
G1 X181.405 Y121.456 E0.00830
G1 X181.211 Y121.615 E0.00786
G1 X180.990 Y121.733 E0.00785
G1 X180.751 Y121.805 E0.00785
G1 X180.487 Y121.831 E0.00831
G1 X180.360 Y121.825 E0.00399
G1 X159.340 Y119.585 E0.66280
G1 X75.087 Y112.214 E2.65179
G1 X74.323 Y112.124 E0.02412
G1 X73.622 Y111.971 E0.02249
G1 X72.941 Y111.748 E0.02247
G1 X72.286 Y111.457 E0.02247
G1 X71.662 Y111.103 E0.02247
G1 X71.078 Y110.688 E0.02247
G1 X70.538 Y110.217 E0.02247
G1 X70.048 Y109.694 E0.02247
G1 X69.613 Y109.124 E0.02247
G1 X69.237 Y108.514 E0.02247
G1 X68.924 Y107.869 E0.02247
G1 X68.678 Y107.196 E0.02247
G1 X68.500 Y106.502 E0.02247
G1 X68.392 Y105.793 E0.02247
G1 X68.356 Y105.077 E0.02247
G1 X68.392 Y104.361 E0.02247
G1 X68.500 Y103.652 E0.02247
G1 X68.678 Y102.958 E0.02247
G1 X68.924 Y102.285 E0.02247
G1 X69.237 Y101.640 E0.02247
G1 X69.613 Y101.030 E0.02247
G1 X70.048 Y100.460 E0.02247
G1 X70.538 Y99.937 E0.02247
G1 X71.078 Y99.466 E0.02247
G1 X71.662 Y99.051 E0.02247
G1 X72.286 Y98.697 E0.02247
G1 X72.941 Y98.406 E0.02247
G1 X73.622 Y98.183 E0.02247
G1 X74.323 Y98.030 E0.02249
G1 X75.087 Y97.940 E0.02412
G1 X159.340 Y90.569 E2.65179
G1 X180.351 Y88.330 E0.66253
G1 X180.556 Y88.326 E0.00643
G1 X180.761 Y88.349 E0.00646
G1 X180.859 Y88.374 E0.00316
G1 X181.200 Y88.530 E0.01176
G1 X181.405 Y88.698 E0.00832
G1 X181.622 Y88.986 E0.01130
G1 X181.724 Y89.230 E0.00831
G1 X181.773 Y89.476 E0.00785
G1 X181.773 Y89.727 E0.00786
G1 X181.682 Y90.096 E0.01192
G1 X176.628 Y101.184 E0.38208
G1 X176.443 Y101.440 E0.00991
G1 X176.224 Y101.632 E0.00913
G1 X175.990 Y101.757 E0.00830
G1 X175.751 Y101.830 E0.00785
G1 X175.468 Y101.858 E0.00891
G1 X77.521 Y101.858 E3.07106
G1 X77.390 Y101.851 E0.00409
G1 X77.025 Y101.764 E0.01177
G1 X76.792 Y101.639 E0.00831
G1 X76.598 Y101.480 E0.00785
G1 X76.439 Y101.287 E0.00785
G1 X76.323 Y101.069 E0.00773
G1 X76.094 Y100.276 E0.02588
G1 X75.795 Y100.600 F10800.000
;TYPE:External perimeter
G1 F1200.000
G1 X75.209 Y100.609 E0.01838
G1 X74.763 Y100.661 E0.01408
G1 X74.324 Y100.757 E0.01408
G1 X73.897 Y100.897 E0.01408
G1 X73.486 Y101.079 E0.01408
G1 X73.096 Y101.301 E0.01408
G1 X72.730 Y101.561 E0.01408
G1 X72.391 Y101.856 E0.01408
G1 X72.084 Y102.184 E0.01408
G1 X71.812 Y102.541 E0.01408
G1 X71.576 Y102.923 E0.01408
G1 X71.380 Y103.328 E0.01408
G1 X71.226 Y103.749 E0.01408
G1 X71.114 Y104.184 E0.01408
G1 X71.047 Y104.628 E0.01408
G1 X71.024 Y105.077 E0.01408
G1 X71.047 Y105.526 E0.01408
G1 X71.114 Y105.970 E0.01408
G1 X71.226 Y106.405 E0.01408
G1 X71.380 Y106.826 E0.01408
G1 X71.576 Y107.231 E0.01408
G1 X71.812 Y107.613 E0.01408
G1 X72.084 Y107.970 E0.01408
G1 X72.391 Y108.298 E0.01408
G1 X72.730 Y108.593 E0.01408
G1 X73.096 Y108.853 E0.01408
G1 X73.486 Y109.075 E0.01408
G1 X73.897 Y109.257 E0.01408
G1 X74.324 Y109.397 E0.01408
G1 X74.763 Y109.493 E0.01408
G1 X75.209 Y109.545 E0.01408
G1 X75.795 Y109.554 E0.01838
G1 X75.972 Y108.942 E0.01997
G1 X76.124 Y108.657 E0.01014
G1 X76.330 Y108.406 E0.01018
G1 X76.581 Y108.200 E0.01018
G1 X76.872 Y108.044 E0.01034
G1 X77.016 Y107.993 E0.00477
G1 X77.344 Y107.928 E0.01051
G1 X77.512 Y107.919 E0.00525
G1 X175.486 Y107.919 E3.07193
M73 P1 R79
M73 Q1 S79
G1 X175.825 Y107.952 E0.01066
G1 X176.135 Y108.047 E0.01018
G1 X176.426 Y108.202 E0.01034
G1 X176.722 Y108.459 E0.01229
G1 X176.881 Y108.660 E0.00803
G1 X176.962 Y108.794 E0.00492
G1 X182.031 Y119.916 E0.38322
G1 X182.086 Y120.067 E0.00502
G1 X182.150 Y120.390 E0.01035
G1 X182.150 Y120.715 E0.01017
G1 X182.087 Y121.033 E0.01019
G1 X181.960 Y121.338 E0.01035
G1 X181.882 Y121.469 E0.00476
G1 X181.673 Y121.724 E0.01034
G1 X181.422 Y121.930 E0.01019
G1 X181.135 Y122.083 E0.01018
G1 X180.825 Y122.177 E0.01018
G1 X180.496 Y122.209 E0.01034
G1 X180.331 Y122.201 E0.00520
G1 X159.303 Y119.961 E0.66303
G1 X75.048 Y112.589 E2.65185
G1 X74.260 Y112.497 E0.02488
G1 X73.523 Y112.335 E0.02367
G1 X72.806 Y112.100 E0.02366
G1 X72.116 Y111.795 E0.02366
G1 X71.460 Y111.422 E0.02366
G1 X70.844 Y110.985 E0.02366
G1 X70.276 Y110.488 E0.02366
G1 X69.760 Y109.938 E0.02366
G1 X69.302 Y109.338 E0.02366
G1 X68.906 Y108.695 E0.02366
G1 X68.577 Y108.016 E0.02366
G1 X68.317 Y107.308 E0.02366
G1 X68.130 Y106.577 E0.02366
G1 X68.017 Y105.831 E0.02366
G1 X67.979 Y105.077 E0.02366
G1 X68.017 Y104.323 E0.02366
G1 X68.130 Y103.577 E0.02366
G1 X68.317 Y102.846 E0.02366
G1 X68.577 Y102.138 E0.02366
G1 X68.906 Y101.459 E0.02366
G1 X69.302 Y100.816 E0.02366
G1 X69.760 Y100.216 E0.02366
G1 X70.276 Y99.666 E0.02366
G1 X70.844 Y99.169 E0.02366
G1 X71.460 Y98.732 E0.02366
G1 X72.116 Y98.359 E0.02366
G1 X72.806 Y98.054 E0.02366
G1 X73.523 Y97.819 E0.02366
G1 X74.260 Y97.657 E0.02367
G1 X75.048 Y97.565 E0.02488
G1 X159.303 Y90.193 E2.65185
G1 X180.327 Y87.953 E0.66293
G1 X180.574 Y87.948 E0.00772
G1 X180.828 Y87.977 E0.00803
G1 X180.977 Y88.014 E0.00482
G1 X181.287 Y88.143 E0.01052
G1 X181.418 Y88.221 E0.00476
G1 X181.673 Y88.430 E0.01035
G1 X181.882 Y88.685 E0.01034
G1 X181.960 Y88.816 E0.00476
G1 X182.087 Y89.121 E0.01035
G1 X182.150 Y89.439 E0.01019
G1 X182.150 Y89.764 E0.01017
G1 X182.086 Y90.087 E0.01035
G1 X182.031 Y90.238 E0.00502
G1 X176.962 Y101.360 E0.38322
G1 X176.881 Y101.494 E0.00492
G1 X176.722 Y101.695 E0.00803
G1 X176.426 Y101.952 E0.01229
G1 X176.135 Y102.107 E0.01034
G1 X175.825 Y102.202 E0.01018
G1 X175.486 Y102.235 E0.01066
G1 X77.512 Y102.235 E3.07193
G1 X77.344 Y102.226 E0.00525
G1 X77.016 Y102.161 E0.01051
G1 X76.872 Y102.110 E0.00477
G1 X76.581 Y101.954 E0.01034
G1 X76.330 Y101.748 E0.01018
G1 X76.124 Y101.497 E0.01018
G1 X75.972 Y101.212 E0.01014
G1 X75.812 Y100.658 E0.01809
G1 X75.744 Y100.204 F10800.000
;WIPE_START
G1 F8640.000
G1 X75.209 Y100.609 E-0.13965
G1 X74.763 Y100.661 E-0.10371
G1 X74.324 Y100.757 E-0.10371
G1 X73.897 Y100.897 E-0.10371
G1 X73.486 Y101.079 E-0.10371
G1 X73.096 Y101.301 E-0.10371
G1 X72.736 Y101.556 E-0.10181
;WIPE_END
G1 E-0.04000 F2100.000
G1 Z0.600 F10800.000
G1 X176.812 Y109.647
G1 Z0.200
G1 E0.80000 F2100.000
;TYPE:Solid infill
;WIDTH:0.421143
G1 F1200.000
G1 X175.800 Y108.634 E0.04502
G1 X175.695 Y108.603 E0.00342
G1 X175.454 Y108.579 E0.00763
G1 X175.209 Y108.579 E0.00769
G1 X176.917 Y110.287 E0.07595
M73 Q1 S78
G1 X177.365 Y111.270 E0.03397
G1 X174.675 Y108.579 E0.11967
G1 X174.140 Y108.579 E0.01682
G1 X177.813 Y112.253 E0.16339
G1 X178.261 Y113.236 E0.03397
G1 X173.605 Y108.579 E0.20710
G1 X173.070 Y108.579 E0.01682
G1 X178.709 Y114.219 E0.25082
G1 X179.157 Y115.202 E0.03397
G1 X172.535 Y108.579 E0.29454
G1 X172.000 Y108.579 E0.01682
G1 X179.605 Y116.185 E0.33825
G1 X180.053 Y117.167 E0.03397
G1 X171.465 Y108.579 E0.38197
M73 P1 R78
G1 X170.930 Y108.579 E0.01682
G1 X180.502 Y118.150 E0.42569
G1 X180.950 Y119.133 E0.03397
G1 X170.395 Y108.579 E0.46940
G1 X169.861 Y108.579 E0.01682
G1 X181.398 Y120.116 E0.51312
G1 X181.490 Y120.461 E0.01124
G1 X181.474 Y120.728 E0.00840
G1 X169.326 Y108.579 E0.54033
G1 X168.791 Y108.579 E0.01682
G1 X181.316 Y121.105 E0.55708
G1 X181.200 Y121.258 E0.00607
G1 X181.054 Y121.378 E0.00591
G1 X168.256 Y108.579 E0.56922
G1 X167.721 Y108.579 E0.01682
G1 X180.671 Y121.529 E0.57596
G1 X180.480 Y121.548 E0.00603
G1 X180.122 Y121.515 E0.01130
G1 X167.186 Y108.579 E0.57535
G1 X166.651 Y108.579 E0.01682
G1 X179.524 Y121.452 E0.57252
G1 X178.925 Y121.388 E0.01893
G1 X166.116 Y108.579 E0.56968
G1 X165.581 Y108.579 E0.01682
G1 X178.326 Y121.324 E0.56684
G1 X177.728 Y121.260 E0.01893
G1 X165.047 Y108.579 E0.56400
G1 X164.512 Y108.579 E0.01682
G1 X177.129 Y121.196 E0.56117
G1 X176.530 Y121.133 E0.01893
G1 X163.977 Y108.579 E0.55833
G1 X163.442 Y108.579 E0.01682
G1 X175.932 Y121.069 E0.55549
G1 X175.333 Y121.005 E0.01893
G1 X162.907 Y108.579 E0.55265
G1 X162.372 Y108.579 E0.01682
G1 X174.734 Y120.941 E0.54982
G1 X174.136 Y120.878 E0.01893
G1 X161.837 Y108.579 E0.54698
G1 X161.302 Y108.579 E0.01682
G1 X173.537 Y120.814 E0.54414
G1 X172.938 Y120.750 E0.01893
G1 X160.767 Y108.579 E0.54131
G1 X160.233 Y108.579 E0.01682
G1 X172.340 Y120.686 E0.53847
G1 X171.741 Y120.622 E0.01893
G1 X159.698 Y108.579 E0.53563
M73 Q2 S78
G1 X159.163 Y108.579 E0.01682
G1 X171.142 Y120.559 E0.53279
M73 P2 R78
G1 X170.543 Y120.495 E0.01893
G1 X158.628 Y108.579 E0.52996
G1 X158.093 Y108.579 E0.01682
G1 X169.945 Y120.431 E0.52712
G1 X169.346 Y120.367 E0.01893
G1 X157.558 Y108.579 E0.52428
G1 X157.023 Y108.579 E0.01682
G1 X168.747 Y120.303 E0.52144
G1 X168.149 Y120.240 E0.01893
G1 X156.488 Y108.579 E0.51861
G1 X155.954 Y108.579 E0.01682
G1 X167.550 Y120.176 E0.51577
G1 X166.951 Y120.112 E0.01893
G1 X155.419 Y108.579 E0.51293
G1 X154.884 Y108.579 E0.01682
G1 X166.353 Y120.048 E0.51010
G1 X165.754 Y119.984 E0.01893
G1 X154.349 Y108.579 E0.50726
G1 X153.814 Y108.579 E0.01682
G1 X165.155 Y119.921 E0.50442
G1 X164.557 Y119.857 E0.01893
G1 X153.279 Y108.579 E0.50158
G1 X152.744 Y108.579 E0.01682
G1 X163.958 Y119.793 E0.49875
G1 X163.359 Y119.729 E0.01893
G1 X152.209 Y108.579 E0.49591
G1 X151.674 Y108.579 E0.01682
G1 X162.761 Y119.665 E0.49307
G1 X162.162 Y119.602 E0.01893
G1 X151.140 Y108.579 E0.49023
G1 X150.605 Y108.579 E0.01682
G1 X161.563 Y119.538 E0.48740
G1 X160.965 Y119.474 E0.01893
G1 X150.070 Y108.579 E0.48456
G1 X149.535 Y108.579 E0.01682
G1 X160.366 Y119.410 E0.48172
G1 X159.767 Y119.346 E0.01893
G1 X149.000 Y108.579 E0.47889
G1 X148.465 Y108.579 E0.01682
G1 X159.173 Y119.287 E0.47623
G1 X158.587 Y119.236 E0.01851
G1 X147.930 Y108.579 E0.47395
G1 X147.395 Y108.579 E0.01682
G1 X158.000 Y119.184 E0.47167
G1 X157.414 Y119.133 E0.01851
G1 X146.860 Y108.579 E0.46939
G1 X146.326 Y108.579 E0.01682
G1 X156.828 Y119.082 E0.46711
G1 X156.242 Y119.030 E0.01851
G1 X145.791 Y108.579 E0.46483
G1 X145.256 Y108.579 E0.01682
G1 X155.656 Y118.979 E0.46255
G1 X155.069 Y118.928 E0.01851
G1 X144.721 Y108.579 E0.46027
G1 X144.186 Y108.579 E0.01682
G1 X154.483 Y118.877 E0.45799
G1 X153.897 Y118.825 E0.01851
G1 X143.651 Y108.579 E0.45570
G1 X143.116 Y108.579 E0.01682
G1 X153.311 Y118.774 E0.45342
G1 X152.725 Y118.723 E0.01851
G1 X142.581 Y108.579 E0.45114
G1 X142.046 Y108.579 E0.01682
G1 X152.139 Y118.671 E0.44886
G1 X151.552 Y118.620 E0.01851
G1 X141.512 Y108.579 E0.44658
G1 X140.977 Y108.579 E0.01682
G1 X150.966 Y118.569 E0.44430
G1 X150.380 Y118.518 E0.01851
G1 X140.442 Y108.579 E0.44202
G1 X139.907 Y108.579 E0.01682
G1 X149.794 Y118.466 E0.43974
G1 X149.208 Y118.415 E0.01851
G1 X139.372 Y108.579 E0.43746
G1 X138.837 Y108.579 E0.01682
G1 X148.622 Y118.364 E0.43518
G1 X148.035 Y118.312 E0.01851
G1 X138.302 Y108.579 E0.43290
G1 X137.767 Y108.579 E0.01682
G1 X147.449 Y118.261 E0.43061
G1 X146.863 Y118.210 E0.01851
G1 X137.232 Y108.579 E0.42833
G1 X136.698 Y108.579 E0.01682
G1 X146.277 Y118.159 E0.42605
G1 X145.691 Y118.107 E0.01851
G1 X136.163 Y108.579 E0.42377
G1 X135.628 Y108.579 E0.01682
G1 X145.105 Y118.056 E0.42149
G1 X144.518 Y118.005 E0.01851
G1 X135.093 Y108.579 E0.41921
G1 X134.558 Y108.579 E0.01682
G1 X143.932 Y117.953 E0.41693
M73 Q2 S77
G1 X143.346 Y117.902 E0.01851
G1 X134.023 Y108.579 E0.41465
G1 X133.488 Y108.579 E0.01682
G1 X142.760 Y117.851 E0.41237
G1 X142.174 Y117.800 E0.01851
G1 X132.953 Y108.579 E0.41009
G1 X132.418 Y108.579 E0.01682
G1 X141.588 Y117.748 E0.40781
M73 P2 R77
G1 X141.001 Y117.697 E0.01851
G1 X131.884 Y108.579 E0.40553
G1 X131.349 Y108.579 E0.01682
G1 X140.415 Y117.646 E0.40324
